!!!OTL: HOERT IHR NICHT DEN JAEGER BLASEN
!!!ARE: Europa, Mitteleuropa, Deutschland, Hessen, Nassau, Hennethal
!!!SCT: E0528B
!!!YEM: Copyright 1995, estate of Helmut Schaffrath.
**kern
*ICvox
*Ivox
*M4/4
*k[f#]
*G:
=1
{4g
4a
4a
4a
=2
8a
8b
8cc
8dd
8cc
8b
4g}
=3
{4e
4g
4g
4g
=4
4g
8cc
8b
8b
8a
4a}
=5
{8c
8e
8g
8a
4b
4g
=6
8f#
8a
8cc
8ff#
2ff#}
=7
{4dd
8ff#
8dd
4cc
4a
=8
4cc
8cc
8b
2a}
==
!!!AGN: Liebes - Lied
!!!ONB: ESAC (Essen Associative Code) Database: ERK1
!!!AMT: simple quadruple
!!!AIN: vox
!!!EED: Helmut Schaffrath
!!!EEV: 1.0
*-
